icons/device-tablet-outline.svg

<svg xmlns="http://www.w3.org/2000/svg" width="24" height="24" viewBox="0 0 24 24">
  <path d="M18,2 C19.6568542,2 21,3.34314575 21,5 L21,5 L21,19 C21,20.6568542 19.6568542,22 18,22 L18,22 L6,22 C4.34314575,22 3,20.6568542 3,19 L3,19 L3,5 C3,3.34314575 4.34314575,2 6,2 L6,2 Z M18,4 L6,4 C5.44771525,4 5,4.44771525 5,5 L5,5 L5,19 C5,19.5522847 5.44771525,20 6,20 L6,20 L18,20 C18.5522847,20 19,19.5522847 19,19 L19,19 L19,5 C19,4.44771525 18.5522847,4 18,4 L18,4 Z M12,16 C12.5522847,16 13,16.4477153 13,17 C13,17.5522847 12.5522847,18 12,18 C11.4477153,18 11,17.5522847 11,17 C11,16.4477153 11.4477153,16 12,16 Z"/>
</svg>

<svg xmlns="http://www.w3.org/2000/svg" viewBox="0 0 24 24">
  <path d="M18 2a3 3 0 0 1 3 3v14a3 3 0 0 1-3 3H6a3 3 0 0 1-3-3V5a3 3 0 0 1 3-3zm0 2H6a1 1 0 0 0-1 1v14a1 1 0 0 0 1 1h12a1 1 0 0 0 1-1V5a1 1 0 0 0-1-1zm-6 12a1 1 0 1 1 0 2 1 1 0 0 1 0-2z"/>
</svg>
